assets/svg/byebyedpi.svg

<svg width="50" height="50" viewBox="0 0 50 50" fill="none" xmlns="http://www.w3.org/2000/svg">
<g clip-path="url(#clip0_488_19)">
<mask id="mask0_488_19" style="mask-type:luminance" maskUnits="userSpaceOnUse" x="0" y="0" width="50" height="50">
<path d="M50 0H0V50H50V0Z" fill="white"/>
</mask>
<g mask="url(#mask0_488_19)">
<path d="M40.2344 0H9.76562C4.37222 0 0 4.37222 0 9.76562V40.2344C0 45.6278 4.37222 50 9.76562 50H40.2344C45.6278 50 50 45.6278 50 40.2344V9.76562C50 4.37222 45.6278 0 40.2344 0Z" fill="#061A23"/>
<path d="M29.9395 33.7734C34.8672 32.0049 35.624 28.3047 35.583 26.5938C35.5215 24.0762 33.6396 21.5986 33.5654 20.2295C33.5 19.0059 33.9561 18.1016 36.0068 18.3975C35.7377 17.6488 35.3578 16.9446 34.8799 16.3086C34.2158 15.4717 33.3447 14.8262 31.9561 14.8281C29.6055 14.8281 28.8311 16.9561 28.292 18.3252C27.7529 19.6943 28.3115 20.2432 26.8496 22.3154C27.0723 24.8135 26.9785 24.8379 26.5898 26.3926C25.6523 30.1436 22.3154 34.5713 20.6133 36.9766C18.9111 39.3818 17.5049 40.625 19.0225 41.8223C20.54 43.0195 21.2607 41.2861 21.8164 40.2861C22.3721 39.2861 22.9629 37.9883 23.2227 38.0664C23.4824 38.1445 23.5557 37.8994 22.8711 39.9717C22.1865 42.0439 22.3525 42.9512 23.833 43.0625C25.3135 43.1738 25.5908 42.2666 25.7021 40.7119C25.8135 39.1572 26.0166 38.3066 26.2197 38.3066C26.4229 38.3066 26.4785 38.0479 26.627 40.0088C26.7754 41.9697 26.8301 43.3027 28.7178 42.6367C30.6055 41.9707 30.0313 40.8975 29.5693 39.8613C29.1074 38.8252 28.9766 37.7891 29.1787 37.6963C29.3809 37.6035 29.6221 38.0869 30.3623 39.2314C31.1025 40.376 31.5098 41.748 33.083 40.6963C35.2695 39.2314 32.2871 36.6816 30.9551 34.998C28.5859 35.8486 27.3838 35.8486 27.3652 34.998C27.3467 34.1475 28.3789 34.333 29.9395 33.7734ZM32.3154 16.126C32.4606 16.126 32.6026 16.169 32.7234 16.2497C32.8442 16.3305 32.9383 16.4451 32.9939 16.5793C33.0495 16.7135 33.0641 16.8611 33.0356 17.0036C33.0073 17.1461 32.9374 17.277 32.8347 17.3796C32.732 17.4823 32.6012 17.5522 32.4587 17.5807C32.3162 17.609 32.1686 17.5944 32.0344 17.5389C31.9002 17.4832 31.7855 17.3892 31.7048 17.2684C31.6241 17.1476 31.5811 17.0056 31.5811 16.8604C31.5811 16.7639 31.6001 16.6685 31.6369 16.5793C31.6738 16.4902 31.7279 16.4093 31.7962 16.3411C31.8644 16.2729 31.9453 16.2187 32.0344 16.1818C32.1235 16.145 32.2189 16.126 32.3154 16.126Z" fill="url(#paint0_linear_488_19)"/>
<mask id="mask1_488_19" style="mask-type:luminance" maskUnits="userSpaceOnUse" x="18" y="31" width="16" height="13">
<path d="M20.6133 36.9746C18.9111 39.3799 17.5049 40.6201 19.0225 41.8223C20.54 43.0244 21.2607 41.2861 21.8164 40.2861C22.3721 39.2861 22.9629 37.9883 23.2227 38.0664C23.4824 38.1445 23.5557 37.8994 22.8711 39.9717C22.1865 42.0439 22.3525 42.9512 23.833 43.0625C25.3135 43.1738 25.5908 42.2666 25.7021 40.7119C25.8135 39.1572 26.0166 38.3066 26.2197 38.3066C26.4229 38.3066 26.4785 38.0479 26.627 40.0088C26.7754 41.9697 26.8301 43.3027 28.7178 42.6367C30.6055 41.9707 30.0313 40.8975 29.5693 39.8613C29.1074 38.8252 28.9766 37.7891 29.1787 37.6963C29.3809 37.6035 29.6221 38.0869 30.3623 39.2314C31.1025 40.376 31.5098 41.748 33.083 40.6963C35.2695 39.2314 32.2871 36.6816 30.9551 34.998C28.5859 35.8486 27.3838 35.8486 27.3652 34.998L25.8623 31.6689L20.6133 36.9746Z" fill="white"/>
</mask>
<g mask="url(#mask1_488_19)">
<path d="M30.5467 37.8828C32.8605 37.3024 34.423 35.5831 34.0366 34.0425C33.6502 32.5018 31.4612 31.7233 29.1474 32.3037C26.8335 32.884 25.2711 34.6034 25.6574 36.144C26.0438 37.6847 28.2328 38.4632 30.5467 37.8828Z" fill="url(#paint1_radial_488_19)"/>
</g>
<path d="M25.5859 22.6992C25.5947 25.2383 25.1797 27.9014 22.6973 31.2813C20.7197 31.5059 19.0322 31.6201 18.6348 30.8184C18.1641 29.8828 19.1748 29.7109 20.3125 28.8828C20.3125 28.8828 22.2051 27.7617 21.8271 27.3408C21.4492 26.9199 19.5811 28.2197 18.6855 28.5605C17.79 28.9014 16.0371 29.7461 15.0957 28.084C14.6748 27.3408 15.208 26.9619 16.8486 26.625C18.4893 26.2881 19.4707 25.8262 19.1924 25.4619C18.9141 25.0977 16.3604 26.0225 14.3408 26.0361C12.3213 26.0498 11.6904 25.1572 11.6904 24.4238C11.6904 23.6904 12.3213 23.8066 14.0879 23.6943C15.8545 23.582 16.9844 23.751 16.9492 23.0635C16.9209 22.5166 14.3691 22.9375 12.8262 22.6992C11.2832 22.4609 9.01172 22.04 9.01172 20.3994C9.01172 19.6982 9.41895 19.4873 10.6719 19.8945C11.9248 20.3018 15.2852 20.9043 15.2852 20.1465C15.2852 19.3887 10.9102 19.8105 8.51172 17.5664C6.11328 15.3223 7.67578 14.1309 8.15234 14.1309C8.88184 14.1309 9.45117 15.3027 13.3691 16.5566C15.248 17.1602 19.9531 17.6064 21.3203 18.2676C23.0313 19.0947 25.5859 22.6992 25.5859 22.6992Z" fill="url(#paint2_linear_488_19)"/>
<path d="M31.9014 13.2979C32.9971 11.1582 33.249 10.7783 33.7217 9.2793C34.1943 7.78027 34.4629 6.48144 35.2695 6.54492C36.3623 6.62402 36.7627 7.91211 36.3096 9.4834C35.7861 11.3057 34.2773 13.21 33.9063 13.7803C33.3008 13.2217 31.9014 13.2979 31.9014 13.2979Z" fill="white"/>
<path d="M34.5703 14.0068C36.0039 12.4512 36.1904 11.1943 36.9053 11.1826C37.6201 11.1709 38.0137 12.041 37.874 12.8086C37.7344 13.5762 36.793 14.957 36.165 15.6172C35.4102 14.8262 34.9824 14.335 34.5703 14.0068Z" fill="white"/>
<path d="M36.666 16.3848C36.8145 15.9941 37.7129 15.5059 38.1309 15.8877C38.6543 16.3672 38.707 17.833 37.6865 18.8447C37.3545 17.6846 36.9189 16.6992 36.666 16.3848Z" fill="white"/>
<path d="M36.5 23.7559C37.1016 23.3018 38.2529 21.9756 38.0527 21.1123C37.8525 20.249 37.7041 20.1445 36.5 19.9873C35.2959 19.8301 34.9121 19.6992 34.9736 20.127C35.0352 20.5547 36.4736 23.415 36.5 23.7559Z" fill="url(#paint3_radial_488_19)"/>
</g>
</g>
<defs>
<linearGradient id="paint0_linear_488_19" x1="30.4092" y1="22.2627" x2="25.665" y2="41.9365" gradientUnits="userSpaceOnUse">
<stop stop-color="white"/>
<stop offset="1" stop-color="#D0D0D0"/>
</linearGradient>
<radialGradient id="paint1_radial_488_19" cx="0" cy="0" r="1" gradientUnits="userSpaceOnUse" gradientTransform="translate(29.8507 34.9431) rotate(-14.08) scale(4.32202 2.86488)">
<stop stop-color="#989898"/>
<stop offset="1" stop-color="white" stop-opacity="0"/>
</radialGradient>
<linearGradient id="paint2_linear_488_19" x1="16.1006" y1="21.4629" x2="12.2969" y2="26.9199" gradientUnits="userSpaceOnUse">
<stop stop-color="white"/>
<stop offset="1" stop-color="#F6F6F6"/>
</linearGradient>
<radialGradient id="paint3_radial_488_19" cx="0" cy="0" r="1" gradientUnits="userSpaceOnUse" gradientTransform="translate(34.9248 19.2109) scale(3.84668)">
<stop stop-color="#8E8E8E"/>
<stop offset="0.03" stop-color="#949494"/>
<stop offset="0.23" stop-color="#BABABA"/>
<stop offset="0.43" stop-color="#D8D8D8"/>
<stop offset="0.63" stop-color="#EEEEEE"/>
<stop offset="0.82" stop-color="#FBFBFB"/>
<stop offset="1" stop-color="white"/>
</radialGradient>
<clipPath id="clip0_488_19">
<rect width="50" height="50" fill="white"/>
</clipPath>
</defs>
</svg>

<svg xmlns="http://www.w3.org/2000/svg" width="50" height="50" fill="none" viewBox="0 0 50 50"><g clip-path="url(#a)"><mask id="b" width="50" height="50" x="0" y="0" maskUnits="userSpaceOnUse" style="mask-type:luminance"><path fill="#fff" d="M50 0H0v50h50z"/></mask><g mask="url(#b)"><path fill="#061a23" d="M40.234 0H9.766C4.372 0 0 4.372 0 9.766v30.468C0 45.628 4.372 50 9.766 50h30.468C45.628 50 50 45.628 50 40.234V9.766C50 4.372 45.628 0 40.234 0"/><path fill="url(#c)" d="M29.94 33.773c4.927-1.768 5.684-5.468 5.643-7.18-.061-2.517-1.943-4.994-2.018-6.363-.065-1.224.391-2.128 2.442-1.832a8 8 0 0 0-1.127-2.09c-.664-.836-1.535-1.482-2.924-1.48-2.35 0-3.125 2.128-3.664 3.497-.54 1.37.02 1.918-1.442 3.99.222 2.499.128 2.523-.26 4.078-.938 3.75-4.275 8.178-5.977 10.584s-3.108 3.648-1.59 4.845c1.517 1.197 2.238-.536 2.793-1.536s1.147-2.298 1.407-2.22.333-.167-.352 1.906c-.684 2.072-.518 2.98.962 3.09 1.48.112 1.758-.795 1.87-2.35.11-1.555.314-2.405.517-2.405s.259-.26.407 1.702c.148 1.96.203 3.294 2.09 2.628 1.889-.666 1.314-1.74.852-2.776s-.592-2.072-.39-2.165.443.39 1.183 1.535 1.148 2.517 2.721 1.465c2.187-1.465-.796-4.014-2.128-5.698-2.37.85-3.571.85-3.59 0s1.014-.665 2.575-1.225m2.375-17.647a.734.734 0 1 1 0 1.469.734.734 0 0 1 0-1.469"/><mask id="d" width="16" height="13" x="18" y="31" maskUnits="userSpaceOnUse" style="mask-type:luminance"><path fill="#fff" d="M20.613 36.975c-1.702 2.405-3.108 3.645-1.59 4.847 1.517 1.202 2.238-.536 2.793-1.536s1.147-2.298 1.407-2.22.333-.167-.352 1.906c-.684 2.072-.518 2.98.962 3.09 1.48.112 1.758-.795 1.87-2.35.11-1.555.314-2.405.517-2.405s.259-.26.407 1.702c.148 1.96.203 3.294 2.09 2.628 1.889-.666 1.314-1.74.852-2.776s-.592-2.072-.39-2.165.443.39 1.183 1.535 1.148 2.517 2.721 1.465c2.187-1.465-.796-4.014-2.128-5.698-2.37.85-3.571.85-3.59 0l-1.503-3.33z"/></mask><g mask="url(#d)"><path fill="url(#e)" d="M30.547 37.883c2.314-.58 3.876-2.3 3.49-3.84-.387-1.541-2.576-2.32-4.89-1.74-2.313.581-3.876 2.3-3.49 3.841.387 1.54 2.576 2.32 4.89 1.739"/></g><path fill="url(#f)" d="M25.586 22.7c.009 2.538-.406 5.201-2.889 8.581-1.977.225-3.665.34-4.062-.463-.47-.935.54-1.107 1.677-1.935 0 0 1.893-1.121 1.515-1.542s-2.246.879-3.142 1.22-2.648 1.185-3.59-.477c-.42-.743.113-1.122 1.754-1.459 1.64-.337 2.622-.799 2.343-1.163s-2.832.56-4.851.574-2.65-.879-2.65-1.612.63-.617 2.397-.73 2.896.057 2.861-.63c-.028-.547-2.58-.127-4.123-.365s-3.814-.659-3.814-2.3c0-.7.407-.912 1.66-.505s4.613 1.01 4.613.253c0-.758-4.375-.336-6.773-2.58-2.399-2.245-.836-3.436-.36-3.436.73 0 1.3 1.172 5.217 2.426 1.879.603 6.584 1.05 7.951 1.71 1.711.828 4.266 4.432 4.266 4.432"/><path fill="#fff" d="M31.901 13.298c1.096-2.14 1.348-2.52 1.82-4.019.473-1.499.742-2.798 1.549-2.734 1.092.079 1.493 1.367 1.04 2.938-.524 1.823-2.033 3.727-2.404 4.297-.605-.558-2.005-.482-2.005-.482M34.57 14.007c1.434-1.556 1.62-2.813 2.335-2.824.715-.012 1.109.858.969 1.626s-1.081 2.148-1.709 2.808c-.755-.79-1.183-1.282-1.595-1.61M36.666 16.385c.149-.39 1.047-.88 1.465-.497.523.48.576 1.945-.444 2.957-.332-1.16-.768-2.146-1.021-2.46"/><path fill="url(#g)" d="M36.5 23.756c.602-.454 1.753-1.78 1.553-2.644-.2-.863-.349-.967-1.553-1.125-1.204-.157-1.588-.288-1.526.14.061.428 1.5 3.288 1.526 3.629"/></g></g><defs><radialGradient id="e" cx="0" cy="0" r="1" gradientTransform="matrix(4.19217 -1.05145 .69696 2.77881 29.85 34.943)" gradientUnits="userSpaceOnUse"><stop stop-color="#989898"/><stop offset="1" stop-color="#fff" stop-opacity="0"/></radialGradient><radialGradient id="g" cx="0" cy="0" r="1" gradientTransform="translate(34.925 19.21)scale(3.84668)" gradientUnits="userSpaceOnUse"><stop stop-color="#8e8e8e"/><stop offset=".03" stop-color="#949494"/><stop offset=".23" stop-color="#bababa"/><stop offset=".43" stop-color="#d8d8d8"/><stop offset=".63" stop-color="#eee"/><stop offset=".82" stop-color="#fbfbfb"/><stop offset="1" stop-color="#fff"/></radialGradient><linearGradient id="c" x1="30.409" x2="25.665" y1="22.263" y2="41.937" gradientUnits="userSpaceOnUse"><stop stop-color="#fff"/><stop offset="1" stop-color="#d0d0d0"/></linearGradient><linearGradient id="f" x1="16.101" x2="12.297" y1="21.463" y2="26.92" gradientUnits="userSpaceOnUse"><stop stop-color="#fff"/><stop offset="1" stop-color="#f6f6f6"/></linearGradient><clipPath id="a"><path fill="#fff" d="M0 0h50v50H0z"/></clipPath></defs></svg>
